symbols/web/format_paint/materialsymbolssharp/format_paint_wght700_48px.svg

<svg xmlns="http://www.w3.org/2000/svg" height="48" width="48"><path d="M17.9 45.85v-13.6H7.05V13.9q0-4.2 2.7-6.975 2.7-2.775 6.9-2.775H41v28.1H30.15v13.6Zm-6.15-26h24.5V8.9h-2.8v7.6h-3V8.9H26.9v4.25h-3V8.9h-7.25q-2.3 0-3.6 1.35-1.3 1.35-1.3 3.65Zm0 7.7h24.5v-4.7h-24.5Zm0 0v-4.7 4.7Z"/></svg>

<svg xmlns="http://www.w3.org/2000/svg" height="48" width="48"><path d="M17.9 45.85V32.25H7.05V13.9Q7.05 9.7 9.75 6.925Q12.45 4.15 16.65 4.15H41V32.25H30.15V45.85ZM11.75 19.85H36.25V8.9H33.45V16.5H30.45V8.9H26.9V13.15H23.9V8.9H16.65Q14.35 8.9 13.05 10.25Q11.75 11.6 11.75 13.9ZM11.75 27.55H36.25V22.85H11.75ZM11.75 27.55V22.85V27.55Z"/></svg>
